; generated by Slic3r 1.37.2-prusa3d-win64 on 2017-11-28 at 06:56:55

; 

; external perimeters extrusion width = 0.45mm
; perimeters extrusion width = 0.45mm
; infill extrusion width = 0.45mm
; solid infill extrusion width = 0.45mm
; top infill extrusion width = 0.40mm
; first layer extrusion width = 0.42mm

M107
M115 U3.1.0 ; tell printer latest fw version
M83  ; extruder relative mode
M104 S215 ; set extruder temp
M140 S55 ; set bed temp
M190 S55 ; wait for bed temp
M109 S215 ; wait for extruder temp
G28 W ; home all without mesh bed level
G80 ; mesh bed leveling
G1 Y-3.0 F1000.0 ; go outside print area
G92 E0.0
G1 X60.0 E9.0  F1000.0 ; intro line
G1 X100.0 E12.5  F1000.0 ; intro line
G92 E0.0
M900 K30 ; Filament gcode
G21 ; set units to millimeters
G90 ; use absolute coordinates
M83 ; use relative distances for extrusion
;BEFORE_LAYER_CHANGE
;0.2


G1 E-0.80000 F2100.00000
G1 Z0.200 F7200.000
;AFTER_LAYER_CHANGE
;0.2
G1 X104.759 Y83.280 F7200.000
G1 E0.80000 F2100.00000
M204 S1000
G1 F1800
G1 X105.574 Y83.123 E0.02602
G1 X144.395 Y83.123 E1.21719
G1 X145.293 Y83.301 E0.02872
G1 X146.061 Y83.808 E0.02884
G1 X150.317 Y88.077 E0.18902
G1 X150.717 Y88.752 E0.02461
G1 X150.876 Y89.525 E0.02473
G1 X150.856 Y120.706 E0.97767
G1 X150.664 Y121.374 E0.02178
G1 X150.285 Y121.960 E0.02190
G1 X145.949 Y126.295 E0.19225
G1 X145.241 Y126.720 E0.02590
G1 X144.426 Y126.877 E0.02602
G1 X105.385 Y126.866 E1.22410
G1 X104.675 Y126.686 E0.02296
G1 X104.054 Y126.298 E0.02296
G1 X99.705 Y121.949 E0.19284
G1 X99.281 Y121.244 E0.02579
G1 X99.123 Y120.433 E0.02590
G1 X99.138 Y89.339 E0.97493
G1 X99.325 Y88.651 E0.02237
G1 X99.707 Y88.048 E0.02237
G1 X104.051 Y83.705 E0.19260
G1 X104.708 Y83.311 E0.02402
G1 F5760
G1 X105.574 Y83.123 E-0.30704
G1 F5760
G1 X106.882 Y83.123 E-0.45296
G1 E-0.04000 F2100.00000
G1 X120.750 Y100.693 F7200.000
G1 E0.80000 F2100.00000
G1 F1800
G1 X121.309 Y100.287 E0.02166
G1 X121.923 Y99.950 E0.02198
G1 X122.575 Y99.692 E0.02198
G1 X123.254 Y99.517 E0.02198
G1 X123.950 Y99.429 E0.02198
G1 X124.650 Y99.429 E0.02198
G1 X125.346 Y99.517 E0.02198
G1 X126.025 Y99.692 E0.02199
G1 X126.685 Y99.954 E0.02227
G1 X127.291 Y100.287 E0.02166
G1 X127.858 Y100.699 E0.02198
G1 X128.369 Y101.179 E0.02198
G1 X128.816 Y101.719 E0.02198
G1 X129.191 Y102.311 E0.02198
G1 X129.490 Y102.945 E0.02198
G1 X129.706 Y103.612 E0.02198
G1 X129.838 Y104.300 E0.02198
G1 X129.881 Y104.990 E0.02166
G1 X129.838 Y105.699 E0.02228
G1 X129.706 Y106.388 E0.02199
G1 X129.490 Y107.055 E0.02198
G1 X129.191 Y107.689 E0.02198
G1 X128.816 Y108.281 E0.02198
G1 X128.368 Y108.821 E0.02199
G1 X127.850 Y109.307 E0.02227
G1 X127.291 Y109.713 E0.02166
G1 X126.677 Y110.050 E0.02198
G1 X126.025 Y110.308 E0.02198
G1 X125.346 Y110.483 E0.02198
G1 X124.650 Y110.571 E0.02199
G1 X123.940 Y110.569 E0.02227
G1 X123.254 Y110.483 E0.02166
G1 X122.575 Y110.308 E0.02198
G1 X121.923 Y110.050 E0.02198
G1 X121.309 Y109.713 E0.02198
G1 X120.742 Y109.301 E0.02198
G1 X120.231 Y108.821 E0.02198
G1 X119.784 Y108.281 E0.02198
G1 X119.409 Y107.689 E0.02198
G1 X119.110 Y107.055 E0.02198
G1 X118.894 Y106.388 E0.02198
G1 X118.762 Y105.700 E0.02198
G1 X118.719 Y105.010 E0.02166
G1 X118.762 Y104.301 E0.02227
G1 X118.894 Y103.612 E0.02200
G1 X119.110 Y102.945 E0.02198
G1 X119.409 Y102.311 E0.02198
G1 X119.779 Y101.728 E0.02166
G1 X120.231 Y101.179 E0.02229
G1 X120.706 Y100.734 E0.02041
G1 X120.964 Y101.010 F7200.000
G1 F1800
G1 X121.512 Y100.606 E0.02133
G1 X122.084 Y100.291 E0.02049
G1 X122.692 Y100.051 E0.02049
G1 X123.325 Y99.888 E0.02049
G1 X123.973 Y99.806 E0.02049
G1 X124.627 Y99.806 E0.02049
G1 X125.275 Y99.888 E0.02049
G1 X125.908 Y100.051 E0.02049
G1 X126.524 Y100.296 E0.02079
G1 X127.088 Y100.606 E0.02019
G1 X127.617 Y100.990 E0.02049
G1 X128.093 Y101.438 E0.02049
G1 X128.510 Y101.941 E0.02049
G1 X128.860 Y102.493 E0.02049
G1 X129.138 Y103.084 E0.02049
G1 X129.340 Y103.706 E0.02049
G1 X129.463 Y104.348 E0.02049
G1 X129.503 Y104.990 E0.02019
G1 X129.463 Y105.652 E0.02079
G1 X129.340 Y106.294 E0.02050
G1 X129.138 Y106.916 E0.02049
G1 X128.860 Y107.507 E0.02049
G1 X128.510 Y108.059 E0.02049
G1 X128.093 Y108.562 E0.02050
G1 X127.609 Y109.015 E0.02079
G1 X127.088 Y109.394 E0.02019
G1 X126.516 Y109.709 E0.02049
G1 X125.908 Y109.949 E0.02049
G1 X125.275 Y110.112 E0.02049
G1 X124.627 Y110.194 E0.02050
G1 X123.964 Y110.192 E0.02079
G1 X123.325 Y110.112 E0.02019
G1 X122.692 Y109.949 E0.02049
G1 X122.084 Y109.709 E0.02049
G1 X121.512 Y109.394 E0.02049
G1 X120.983 Y109.010 E0.02049
G1 X120.507 Y108.562 E0.02049
G1 X120.090 Y108.059 E0.02049
G1 X119.740 Y107.507 E0.02049
G1 X119.462 Y106.916 E0.02049
G1 X119.260 Y106.294 E0.02049
G1 X119.137 Y105.652 E0.02049
G1 X119.097 Y105.010 E0.02019
G1 X119.137 Y104.348 E0.02079
G1 X119.260 Y103.706 E0.02050
G1 X119.462 Y103.084 E0.02049
G1 X119.740 Y102.493 E0.02049
G1 X120.085 Y101.949 E0.02019
G1 X120.507 Y101.438 E0.02079
G1 X120.920 Y101.051 E0.01776
G1 X120.895 Y100.616 F7200.000
G1 F5760
G1 X121.512 Y100.606 E-0.25623
G1 F5760
G1 X122.084 Y100.291 E-0.22634
G1 F5760
G1 X122.692 Y100.051 E-0.22635
G1 F5760
G1 X122.835 Y100.014 E-0.05109
G1 E-0.04000 F2100.00000
G1 X105.852 Y86.087 F7200.000
G1 E0.80000 F2100.00000
G1 F1800
G1 X144.148 Y86.087 E1.20073
G1 X147.913 Y89.852 E0.16696
G1 X147.913 Y120.148 E0.94989
G1 X144.148 Y123.913 E0.16696
G1 X105.852 Y123.913 E1.20073
G1 X102.087 Y120.148 E0.16696
G1 X102.087 Y89.852 E0.94989
G1 X105.810 Y86.130 E0.16507
G1 X105.696 Y85.710 F7200.000
G1 F1800
G1 X144.304 Y85.710 E1.21052
G1 X148.290 Y89.696 E0.17675
G1 X148.290 Y120.304 E0.95969
G1 X144.304 Y124.290 E0.17675
G1 X105.696 Y124.290 E1.21052
G1 X101.710 Y120.304 E0.17675
G1 X101.710 Y89.696 E0.95969
G1 X105.654 Y85.752 E0.17487
G1 X106.035 Y85.923 F7200.000
G1 F5760
G1 X107.848 Y85.750 E-0.76000
G1 E-0.04000 F2100.00000
G1 X106.139 Y123.800 F7200.000
G1 E0.80000 F2100.00000
G1 F1800
G1 X102.370 Y120.030 E0.16744
G1 X102.370 Y119.496 E0.01678
G1 X106.504 Y123.630 E0.18363
G1 X107.038 Y123.630 E0.01678
G1 X102.370 Y118.962 E0.20736
G1 X102.370 Y118.428 E0.01678
G1 X107.572 Y123.630 E0.23108
G1 X108.107 Y123.630 E0.01678
G1 X102.370 Y117.893 E0.25481
G1 X102.370 Y117.359 E0.01678
G1 X108.641 Y123.630 E0.27854
G1 X109.175 Y123.630 E0.01678
G1 X102.370 Y116.825 E0.30227
G1 X102.370 Y116.291 E0.01678
G1 X109.709 Y123.630 E0.32599
G1 X110.243 Y123.630 E0.01678
G1 X102.370 Y115.757 E0.34972
G1 X102.370 Y115.222 E0.01678
G1 X110.778 Y123.630 E0.37345
G1 X111.312 Y123.630 E0.01678
G1 X102.370 Y114.688 E0.39718
G1 X102.370 Y114.154 E0.01678
G1 X111.846 Y123.630 E0.42090
G1 X112.380 Y123.630 E0.01678
G1 X102.370 Y113.620 E0.44463
G1 X102.370 Y113.086 E0.01678
G1 X112.914 Y123.630 E0.46836
G1 X113.448 Y123.630 E0.01678
G1 X102.370 Y112.552 E0.49209
G1 X102.370 Y112.017 E0.01678
G1 X113.983 Y123.630 E0.51581
G1 X114.517 Y123.630 E0.01678
G1 X102.370 Y111.483 E0.53954
G1 X102.370 Y110.949 E0.01678
G1 X115.051 Y123.630 E0.56327
G1 X115.585 Y123.630 E0.01678
G1 X102.370 Y110.415 E0.58700
G1 X102.370 Y109.881 E0.01678
G1 X116.119 Y123.630 E0.61073
G1 X116.654 Y123.630 E0.01678
G1 X102.370 Y109.346 E0.63445
G1 X102.370 Y108.812 E0.01678
G1 X117.188 Y123.630 E0.65818
G1 X117.722 Y123.630 E0.01678
G1 X102.370 Y108.278 E0.68191
G1 X102.370 Y107.744 E0.01678
G1 X118.256 Y123.630 E0.70564
G1 X118.790 Y123.630 E0.01678
G1 X102.370 Y107.210 E0.72936
G1 X102.370 Y106.675 E0.01678
G1 X119.325 Y123.630 E0.75309
G1 X119.859 Y123.630 E0.01678
G1 X102.370 Y106.141 E0.77682
G1 X102.370 Y105.607 E0.01678
G1 X120.393 Y123.630 E0.80055
G1 X120.927 Y123.630 E0.01678
G1 X102.370 Y105.073 E0.82427
G1 X102.370 Y104.539 E0.01678
G1 X121.461 Y123.630 E0.84800
G1 X121.995 Y123.630 E0.01678
G1 X102.370 Y104.005 E0.87173
G1 X102.370 Y103.470 E0.01678
G1 X122.530 Y123.630 E0.89546
G1 X123.064 Y123.630 E0.01678
G1 X102.370 Y102.936 E0.91918
G1 X102.370 Y102.402 E0.01678
G1 X123.598 Y123.630 E0.94291
G1 X124.132 Y123.630 E0.01678
G1 X102.370 Y101.868 E0.96664
G1 X102.370 Y101.334 E0.01678
G1 X124.666 Y123.630 E0.99037
G1 X125.201 Y123.630 E0.01678
G1 X102.370 Y100.799 E1.01409
G1 X102.370 Y100.265 E0.01678
G1 X125.735 Y123.630 E1.03782
G1 X126.269 Y123.630 E0.01678
G1 X102.370 Y99.731 E1.06155
G1 X102.370 Y99.197 E0.01678
G1 X126.803 Y123.630 E1.08528
G1 X127.337 Y123.630 E0.01678
G1 X102.370 Y98.663 E1.10900
G1 X102.370 Y98.128 E0.01678
G1 X127.872 Y123.630 E1.13273
G1 X128.406 Y123.630 E0.01678
G1 X102.370 Y97.594 E1.15646
G1 X102.370 Y97.060 E0.01678
G1 X128.940 Y123.630 E1.18019
G1 X129.474 Y123.630 E0.01678
G1 X102.370 Y96.526 E1.20391
G1 X102.370 Y95.992 E0.01678
G1 X130.008 Y123.630 E1.22764
G1 X130.542 Y123.630 E0.01678
G1 X102.370 Y95.458 E1.25137
G1 X102.370 Y94.923 E0.01678
G1 X131.077 Y123.630 E1.27510
G1 X131.611 Y123.630 E0.01678
G1 X102.370 Y94.389 E1.29882
G1 X102.370 Y93.855 E0.01678
G1 X132.145 Y123.630 E1.32255
G1 X132.679 Y123.630 E0.01678
G1 X102.370 Y93.321 E1.34628
G1 X102.370 Y92.787 E0.01678
G1 X133.213 Y123.630 E1.37001
G1 X133.748 Y123.630 E0.01678
G1 X102.370 Y92.252 E1.39373
G1 X102.370 Y91.718 E0.01678
G1 X134.451 Y123.800 E1.42500
G1 F5760
G1 X132.900 Y122.248 E-0.76000
G1 E-0.04000 F2100.00000
G1 X147.556 Y120.345 F7200.000
G1 E0.80000 F2100.00000
G1 F1800
G1 X129.487 Y102.276 E0.80259
G1 X129.753 Y102.841 E0.01962
G1 X129.866 Y103.189 E0.01149
G1 X147.169 Y120.492 E0.76856
G1 X146.902 Y120.759 E0.01186
G1 X130.051 Y103.907 E0.74850
G1 X130.119 Y104.265 E0.01143
G1 X130.135 Y104.526 E0.00823
G1 X146.635 Y121.026 E0.73288
G1 X146.368 Y121.293 E0.01186
G1 X130.159 Y105.084 E0.71998
G1 X130.128 Y105.587 E0.01584
G1 X146.101 Y121.560 E0.70948
G1 X145.834 Y121.827 E0.01186
G1 X130.058 Y106.052 E0.70070
G1 X129.968 Y106.496 E0.01424
G1 X145.566 Y122.094 E0.69283
G1 X145.299 Y122.361 E0.01186
G1 X129.837 Y106.899 E0.68678
G1 X129.692 Y107.288 E0.01304
G1 X145.032 Y122.628 E0.68137
G1 X144.765 Y122.896 E0.01186
G1 X129.521 Y107.652 E0.67710
G1 X129.331 Y107.996 E0.01235
G1 X144.498 Y123.163 E0.67367
G1 X144.231 Y123.430 E0.01186
G1 X129.124 Y108.323 E0.67102
G1 X128.895 Y108.628 E0.01199
G1 X143.897 Y123.630 E0.66635
G1 X143.363 Y123.630 E0.01678
G1 X128.653 Y108.921 E0.65337
G1 X128.389 Y109.190 E0.01186
G1 X142.829 Y123.630 E0.64141
G1 X142.295 Y123.630 E0.01678
G1 X128.113 Y109.448 E0.62994
G1 X127.813 Y109.683 E0.01195
G1 X141.760 Y123.630 E0.61951
G1 X141.226 Y123.630 E0.01678
G1 X127.504 Y109.908 E0.60953
G1 X127.166 Y110.104 E0.01227
G1 X140.692 Y123.630 E0.60080
G1 X140.158 Y123.630 E0.01678
G1 X126.821 Y110.294 E0.59238
G1 X126.441 Y110.448 E0.01288
G1 X139.624 Y123.630 E0.58554
G1 X139.089 Y123.630 E0.01678
G1 X126.053 Y110.593 E0.57907
G1 X125.628 Y110.702 E0.01378
G1 X138.555 Y123.630 E0.57422
G1 X138.021 Y123.630 E0.01678
G1 X125.180 Y110.789 E0.57039
G1 X124.705 Y110.849 E0.01501
G1 X137.487 Y123.630 E0.56772
G1 X136.953 Y123.630 E0.01678
G1 X124.175 Y110.853 E0.56755
G1 X123.921 Y110.852 E0.00797
G1 X123.600 Y110.811 E0.01018
G1 X136.419 Y123.630 E0.56938
G1 X135.884 Y123.630 E0.01678
G1 X122.951 Y110.697 E0.57446
G1 X122.488 Y110.578 E0.01503
G1 X122.174 Y110.454 E0.01061
G1 X135.350 Y123.630 E0.58527
G1 X134.816 Y123.630 E0.01678
G1 X102.370 Y91.184 E1.44119
G1 X102.370 Y90.650 E0.01678
G1 X118.831 Y107.111 E0.73119
G1 X118.619 Y106.459 E0.02156
G1 X118.597 Y106.343 E0.00370
G1 X102.370 Y90.116 E0.72079
G1 X102.370 Y89.969 E0.00459
G1 X102.564 Y89.775 E0.00862
G1 X118.478 Y105.690 E0.70689
G1 X118.443 Y105.120 E0.01794
G1 X102.831 Y89.508 E0.69344
G1 X103.098 Y89.241 E0.01186
G1 X118.460 Y104.604 E0.68237
G1 X118.481 Y104.266 E0.01064
G1 X118.509 Y104.118 E0.00471
G1 X103.365 Y88.974 E0.67267
G1 X103.632 Y88.707 E0.01186
G1 X118.595 Y103.670 E0.66461
G1 X118.713 Y103.253 E0.01359
G1 X103.899 Y88.440 E0.65799
G1 X104.166 Y88.173 E0.01186
G1 X118.844 Y102.850 E0.65194
G1 X119.014 Y102.486 E0.01262
G1 X104.433 Y87.906 E0.64763
G1 X104.701 Y87.639 E0.01186
G1 X119.190 Y102.128 E0.64359
G1 X119.397 Y101.801 E0.01216
G1 X104.968 Y87.372 E0.64094
G1 X105.235 Y87.104 E0.01186
G1 X119.614 Y101.483 E0.63868
G1 X119.855 Y101.191 E0.01192
G1 X105.502 Y86.837 E0.63754
G1 X105.769 Y86.570 E0.01186
G1 X120.107 Y100.908 E0.63686
G1 X120.383 Y100.650 E0.01187
G1 X106.103 Y86.370 E0.63429
G1 X106.637 Y86.370 E0.01678
G1 X120.670 Y100.402 E0.62330
G1 X120.979 Y100.178 E0.01201
G1 X107.171 Y86.370 E0.61331
G1 X107.705 Y86.370 E0.01678
G1 X121.303 Y99.968 E0.60399
G1 X121.648 Y99.778 E0.01235
G1 X108.239 Y86.370 E0.59558
G1 X108.774 Y86.370 E0.01678
G1 X122.014 Y99.610 E0.58809
G1 X122.396 Y99.458 E0.01293
G1 X109.308 Y86.370 E0.58136
G1 X109.842 Y86.370 E0.01678
G1 X122.811 Y99.339 E0.57606
G1 X123.240 Y99.234 E0.01388
G1 X110.376 Y86.370 E0.57139
G1 X110.910 Y86.370 E0.01678
G1 X123.715 Y99.174 E0.56873
G1 X123.932 Y99.147 E0.00688
G1 X124.221 Y99.147 E0.00909
G1 X111.445 Y86.370 E0.56752
G1 X111.979 Y86.370 E0.01678
G1 X124.768 Y99.159 E0.56808
G1 X125.380 Y99.236 E0.01936
G1 X112.513 Y86.370 E0.57151
G1 X113.047 Y86.370 E0.01678
G1 X126.095 Y99.418 E0.57955
G1 X126.806 Y99.698 E0.02402
G1 X127.036 Y99.824 E0.00823
G1 X113.581 Y86.370 E0.59762
G1 X114.116 Y86.370 E0.01678
G1 X147.630 Y119.884 E1.48865
G1 X147.630 Y119.350 E0.01678
G1 X114.650 Y86.370 E1.46492
G1 X115.184 Y86.370 E0.01678
G1 X147.630 Y118.816 E1.44119
G1 X147.630 Y118.282 E0.01678
G1 X115.718 Y86.370 E1.41747
G1 X116.252 Y86.370 E0.01678
G1 X147.630 Y117.748 E1.39374
G1 X147.630 Y117.214 E0.01678
G1 X116.786 Y86.370 E1.37001
G1 X117.321 Y86.370 E0.01678
G1 X147.630 Y116.679 E1.34628
G1 X147.630 Y116.145 E0.01678
G1 X117.855 Y86.370 E1.32256
G1 X118.389 Y86.370 E0.01678
G1 X147.630 Y115.611 E1.29883
G1 X147.630 Y115.077 E0.01678
G1 X118.923 Y86.370 E1.27510
G1 X119.457 Y86.370 E0.01678
G1 X147.630 Y114.543 E1.25137
G1 X147.630 Y114.008 E0.01678
G1 X119.992 Y86.370 E1.22765
G1 X120.526 Y86.370 E0.01678
G1 X147.630 Y113.474 E1.20392
G1 X147.630 Y112.940 E0.01678
G1 X121.060 Y86.370 E1.18019
G1 X121.594 Y86.370 E0.01678
G1 X147.630 Y112.406 E1.15646
G1 X147.630 Y111.872 E0.01678
G1 X122.128 Y86.370 E1.13274
G1 X122.663 Y86.370 E0.01678
G1 X147.630 Y111.337 E1.10901
G1 X147.630 Y110.803 E0.01678
G1 X123.197 Y86.370 E1.08528
G1 X123.731 Y86.370 E0.01678
G1 X147.630 Y110.269 E1.06155
G1 X147.630 Y109.735 E0.01678
G1 X124.265 Y86.370 E1.03783
G1 X124.799 Y86.370 E0.01678
G1 X147.630 Y109.201 E1.01410
G1 X147.630 Y108.667 E0.01678
G1 X125.333 Y86.370 E0.99037
G1 X125.868 Y86.370 E0.01678
G1 X147.630 Y108.132 E0.96664
G1 X147.630 Y107.598 E0.01678
G1 X126.402 Y86.370 E0.94292
G1 X126.936 Y86.370 E0.01678
G1 X147.630 Y107.064 E0.91919
G1 X147.630 Y106.530 E0.01678
G1 X127.470 Y86.370 E0.89546
G1 X128.004 Y86.370 E0.01678
G1 X147.630 Y105.996 E0.87173
G1 X147.630 Y105.461 E0.01678
G1 X128.539 Y86.370 E0.84801
G1 X129.073 Y86.370 E0.01678
G1 X147.630 Y104.927 E0.82428
G1 X147.630 Y104.393 E0.01678
G1 X129.607 Y86.370 E0.80055
G1 X130.141 Y86.370 E0.01678
G1 X147.630 Y103.859 E0.77682
G1 X147.630 Y103.325 E0.01678
G1 X130.675 Y86.370 E0.75310
G1 X131.210 Y86.370 E0.01678
G1 X147.630 Y102.790 E0.72937
G1 X147.630 Y102.256 E0.01678
G1 X131.744 Y86.370 E0.70564
G1 X132.278 Y86.370 E0.01678
G1 X147.630 Y101.722 E0.68191
G1 X147.630 Y101.188 E0.01678
G1 X132.812 Y86.370 E0.65819
G1 X133.346 Y86.370 E0.01678
G1 X147.630 Y100.654 E0.63446
G1 X147.630 Y100.120 E0.01678
G1 X133.880 Y86.370 E0.61073
G1 X134.415 Y86.370 E0.01678
G1 X147.630 Y99.585 E0.58700
G1 X147.630 Y99.051 E0.01678
G1 X134.949 Y86.370 E0.56328
G1 X135.483 Y86.370 E0.01678
G1 X147.630 Y98.517 E0.53955
G1 X147.630 Y97.983 E0.01678
G1 X136.017 Y86.370 E0.51582
G1 X136.551 Y86.370 E0.01678
G1 X147.630 Y97.449 E0.49209
G1 X147.630 Y96.914 E0.01678
G1 X137.086 Y86.370 E0.46837
G1 X137.620 Y86.370 E0.01678
G1 X147.630 Y96.380 E0.44464
G1 X147.630 Y95.846 E0.01678
G1 X138.154 Y86.370 E0.42091
G1 X138.688 Y86.370 E0.01678
G1 X147.630 Y95.312 E0.39718
G1 X147.630 Y94.778 E0.01678
G1 X139.222 Y86.370 E0.37346
G1 X139.757 Y86.370 E0.01678
G1 X147.630 Y94.243 E0.34973
G1 X147.630 Y93.709 E0.01678
G1 X140.291 Y86.370 E0.32600
G1 X140.825 Y86.370 E0.01678
